public/mascots/dropout/fox-64x64.svg

<svg xmlns="http://www.w3.org/2000/svg" width="64" height="64" viewBox="0 0 64 64"><defs><linearGradient id="a" x1="0%" x2="100%" y1="0%" y2="100%"><stop offset="0%" style="stop-color:#f48c06"/><stop offset="100%" style="stop-color:#e85d04"/></linearGradient><linearGradient id="b" x1="0%" x2="0%" y1="0%" y2="100%"><stop offset="0%" style="stop-color:#6a040f"/><stop offset="100%" style="stop-color:#370617"/></linearGradient><linearGradient id="c" x1="0%" x2="100%" y1="0%" y2="100%"><stop offset="0%" style="stop-color:#ffd60a"/><stop offset="100%" style="stop-color:#ffc300"/></linearGradient></defs><path fill="url(#a)" d="M12 40q-4-8 0-16t12-4l-8 16q-2 4-4 4"/><path fill="none" stroke="#f48c06" d="M12 24q-2-4 0-8t6 0"/><path fill="none" stroke="#faa307" stroke-width=".8" d="M14 38q4-2 6-6"/><path fill="url(#b)" d="M20 36q0-8 8-10t16 2q4 4 4 12 0 12-8 16t-16 0q-4-4-4-12z"/><path stroke="#9d0208" d="M28 32v16M36 32v16"/><rect width="4" height="4" x="30" y="36" fill="url(#c)" rx=".5"/><path stroke="#ffd60a" stroke-dasharray="2,1" stroke-width=".5" d="M32 32v18"/><path fill="none" stroke="#9d0208" stroke-width="1.5" d="m24 28 4 4h8l4-4"/><path fill="#6a040f" d="M26 30q6 4 12 0"/><ellipse cx="32" cy="20" fill="url(#a)" rx="12" ry="10"/><ellipse cx="22" cy="22" fill="#ffba08" opacity=".6" rx="3" ry="2"/><ellipse cx="42" cy="22" fill="#ffba08" opacity=".6" rx="3" ry="2"/><path fill="url(#a)" d="m22 14-2-8 6 6Z"/><path fill="#370617" d="M22 10V8l2 2Z"/><path fill="url(#a)" d="m42 14 2-8-6 6Z"/><path fill="#370617" d="M42 10V8l-2 2Z"/><ellipse cx="32" cy="24" fill="#ffba08" rx="5" ry="3"/><ellipse cx="32" cy="23" fill="#370617" rx="2" ry="1.5"/><path stroke="#370617" stroke-width=".5" d="M32 24v2"/><path fill="none" stroke="#370617" stroke-linecap="round" stroke-width=".8" d="M28 26q4 2 8-1"/><ellipse cx="27" cy="19" fill="#fff" rx="2.5" ry="3"/><ellipse cx="27.5" cy="19" fill="#370617" rx="1.2" ry="1.8"/><circle cx="27.8" cy="18.5" r=".4" fill="#fff"/><ellipse cx="37" cy="19" fill="#fff" rx="2.5" ry="3"/><ellipse cx="36.5" cy="19" fill="#370617" rx="1.2" ry="1.8"/><circle cx="36.2" cy="18.5" r=".4" fill="#fff"/><path fill="none" stroke="#370617" stroke-width=".8" d="M24 15q3-1 6 0M34 15q3-1 6 0"/><path fill="url(#b)" d="M20 40q-4 4-2 8t6 0"/><path fill="url(#b)" d="M48 40q4 4 2 8t-6 0"/><rect width="5" height="3" x="19" y="46" fill="#6a040f" rx="1"/><rect width="5" height="3" x="40" y="46" fill="#6a040f" rx="1"/><circle cx="40" cy="38" r="3" fill="url(#c)"/><text x="40" y="39.5" fill="#370617" font-size="3" font-weight="bold" text-anchor="middle">F</text><path fill="#6a040f" d="M24 42h2v4h-2ZM38 42h2v4h-2Z"/></svg>

<svg xmlns="http://www.w3.org/2000/svg" viewBox="0 0 64 64" width="64" height="64">
  <defs>
    <linearGradient id="foxOrange64" x1="0%" y1="0%" x2="100%" y2="100%">
      <stop offset="0%" style="stop-color:#F48C06"/>
      <stop offset="100%" style="stop-color:#E85D04"/>
    </linearGradient>
    <linearGradient id="jacketBurgundy64" x1="0%" y1="0%" x2="0%" y2="100%">
      <stop offset="0%" style="stop-color:#6A040F"/>
      <stop offset="100%" style="stop-color:#370617"/>
    </linearGradient>
    <linearGradient id="goldAccent64" x1="0%" y1="0%" x2="100%" y2="100%">
      <stop offset="0%" style="stop-color:#FFD60A"/>
      <stop offset="100%" style="stop-color:#FFC300"/>
    </linearGradient>
  </defs>
  
  <!-- Tail -->
  <path d="M12 40 Q8 32 12 24 Q16 16 24 20 Q20 28 16 36 Q14 40 12 40Z" fill="url(#foxOrange64)"/>
  <path d="M12 24 Q10 20 12 16 Q14 12 18 16" fill="none" stroke="#F48C06" stroke-width="1"/>
  <path d="M14 38 Q18 36 20 32" fill="none" stroke="#FAA307" stroke-width="0.8"/>
  
  <!-- Body/Jacket -->
  <path d="M20 36 Q20 28 28 26 Q36 24 44 28 Q48 32 48 40 Q48 52 40 56 Q32 60 24 56 Q20 52 20 44 Q20 40 20 36Z" fill="url(#jacketBurgundy64)"/>
  
  <!-- Jacket Details -->
  <path d="M28 32 L28 48" stroke="#9D0208" stroke-width="1"/>
  <path d="M36 32 L36 48" stroke="#9D0208" stroke-width="1"/>
  <rect x="30" y="36" width="4" height="4" fill="url(#goldAccent64)" rx="0.5"/>
  
  <!-- Zipper -->
  <line x1="32" y1="32" x2="32" y2="50" stroke="#FFD60A" stroke-width="0.5" stroke-dasharray="2,1"/>
  
  <!-- Jacket Collar -->
  <path d="M24 28 L28 32 L36 32 L40 28" fill="none" stroke="#9D0208" stroke-width="1.5"/>
  <path d="M26 30 Q32 34 38 30" fill="#6A040F"/>
  
  <!-- Head -->
  <ellipse cx="32" cy="20" rx="12" ry="10" fill="url(#foxOrange64)"/>
  
  <!-- Cheeks -->
  <ellipse cx="22" cy="22" rx="3" ry="2" fill="#FFBA08" opacity="0.6"/>
  <ellipse cx="42" cy="22" rx="3" ry="2" fill="#FFBA08" opacity="0.6"/>
  
  <!-- Ears -->
  <path d="M22 14 L20 6 L26 12Z" fill="url(#foxOrange64)"/>
  <path d="M22 10 L22 8 L24 10Z" fill="#370617"/>
  <path d="M42 14 L44 6 L38 12Z" fill="url(#foxOrange64)"/>
  <path d="M42 10 L42 8 L40 10Z" fill="#370617"/>
  
  <!-- Snout -->
  <ellipse cx="32" cy="24" rx="5" ry="3" fill="#FFBA08"/>
  <ellipse cx="32" cy="23" rx="2" ry="1.5" fill="#370617"/>
  <line x1="32" y1="24" x2="32" y2="26" stroke="#370617" stroke-width="0.5"/>
  
  <!-- Mouth (confident smirk) -->
  <path d="M28 26 Q32 28 36 25" fill="none" stroke="#370617" stroke-width="0.8" stroke-linecap="round"/>
  
  <!-- Eyes (clever expression) -->
  <ellipse cx="27" cy="19" rx="2.5" ry="3" fill="#FFF"/>
  <ellipse cx="27.5" cy="19" rx="1.2" ry="1.8" fill="#370617"/>
  <circle cx="27.8" cy="18.5" r="0.4" fill="#FFF"/>
  <ellipse cx="37" cy="19" rx="2.5" ry="3" fill="#FFF"/>
  <ellipse cx="36.5" cy="19" rx="1.2" ry="1.8" fill="#370617"/>
  <circle cx="36.2" cy="18.5" r="0.4" fill="#FFF"/>
  
  <!-- Eyebrows (confident) -->
  <path d="M24 15 Q27 14 30 15" stroke="#370617" stroke-width="0.8" fill="none"/>
  <path d="M34 15 Q37 14 40 15" stroke="#370617" stroke-width="0.8" fill="none"/>
  
  <!-- Arms -->
  <path d="M20 40 Q16 44 18 48 Q20 52 24 48" fill="url(#jacketBurgundy64)"/>
  <path d="M48 40 Q52 44 50 48 Q48 52 44 48" fill="url(#jacketBurgundy64)"/>
  
  <!-- Jacket Cuffs -->
  <rect x="19" y="46" width="5" height="3" fill="#6A040F" rx="1"/>
  <rect x="40" y="46" width="5" height="3" fill="#6A040F" rx="1"/>
  
  <!-- Jacket Emblem -->
  <circle cx="40" cy="38" r="3" fill="url(#goldAccent64)"/>
  <text x="40" y="39.5" font-size="3" text-anchor="middle" fill="#370617" font-weight="bold">F</text>
  
  <!-- Jacket Pockets -->
  <path d="M24 42 L26 42 L26 46 L24 46Z" fill="#6A040F"/>
  <path d="M38 42 L40 42 L40 46 L38 46Z" fill="#6A040F"/>
</svg>
